X:1
T:Title
%%score { ( 1 3 4 6 ) | ( 2 5 7 ) }
L:1/8
M:3/4
K:Eb
V:1 treble nm="Grand Piano"
V:3 treble 
V:4 treble 
V:6 treble 
V:2 bass 
V:5 bass 
V:7 bass 
V:1
 z2 z2[Q:1/4=100] [EB]>[GB] | [GB]3 [Be] [Ae]>[Ac] | [GB]2 G2 E>E | [DF]3 [DF] [DG][DB] | %4
[M:2/4] [EG]4 |[M:1/4] [EB]>[GB] |[M:3/4] [GB]3 [Be] [Ae]>[Ac] | [GB]2 G2 E>E | %8
 [DF]3 [EG] [EG][DF] | E6 |[M:4/4] z2 z d- d2 z2 | c>c [Gc]B- B-[GB-] [GB]2 | z4 z2 c2 | =A2 B6 | %14
 z2 z d- d4 | %15
[M:39/32] [Ac]/4-[Ac]/4-[Ac]/-<[Ac]/[EAd]/[Gf]/-<[Gf]/e/-<e/-[Be]/-<[Be-]/[Be]/-<[Be-]/[Ae]/4-[Ae]/4-[Ae]/4-[Ae]/4-[Ae]/4-[Ae]/4-[Ae]/4-[Ae]/4-[Ae]/-<[Ae]/e3/4- | %16
[M:4/4] (3:2:2e2 c z2 (3:2:2e3 e3 |[M:7/8] d2- d/4 z/4 z/ z z z2 | z7 |] %19
V:2
 z2 z2 [E,G,]>[E,B,] | [E,E]3 [G,B,] [A,C]>[A,E] | [E,E]2 [E,B,E]2 [E,G,]>[E,G,] | %3
 [B,,B,]3 [B,,B,] [B,,B,][C,B,] |[M:2/4] [E,B,]4 |[M:1/4] [E,G,]>[E,B,] | %6
[M:3/4] [E,E]3 [G,B,] [A,C]>[A,E] | [E,E]2 [E,B,E]2 [E,G,]>[C,=A,] | %8
 [B,,B,]3 [B,,B,] [B,,B,][B,,A,] | [E,G,]6 |[M:4/4] [E,B,]>[E,B,] [F,B,]2 [F,B,]2 [B,,B,]2 | %11
 [B,,B,]2 .[E,B,]2 z B, E2 | E,>F, G,2- G,E, z E | [DF]C z2 C2 D2 | %14
 E,>[E,B,] [F,B,]2 [F,B,]2 [B,,B,]2 | %15
[M:39/32] [B,,B,]/4-[B,,B,]/4-[B,,B,]/-<[B,,B,]/B,,/[E,E]/-<[E,E]/[E,E]/-<[E,E]/[K:treble][G,_D]/-<[G,D]/[G,D]/-<[G,D]/[A,C]/4-[A,C]/4-[A,C]/4-[A,C]/4-[A,C]/4-[A,C]/4-[A,C]/4-[A,C]/4-[A,C]/-<[A,C]/[A,CA]3/4- | %16
[M:4/4] (3:2:2[A,CA]2 [A,EA][K:bass] z2 (3:2:2[G,B,E]3 [B,E-G-]3 | %17
[M:7/8] [EG]-[B,-EG]/<B,/ B,2- B,/4 z/4 z/ z [E,B,]- | [E,B,]2- [E,B,]/4 z/4 z/ z z z2 |] %19
V:3
 x6 | x6 | x6 | x6 |[M:2/4] x4 |[M:1/4] x2 |[M:3/4] x6 | x6 | x6 | x6 | %10
[M:4/4] [GB]>[Ge] .e2 A2 [Ad]2 | A2 z [EG] z4 | G>A B2- B[EGB][FA]G | z E [B,D]2 E2 F2 | %14
 [B,GB]>[Ge] .e2 A2 A2 | %15
[M:39/32] z/4 z/4 z/4 z/4 z/4 z/4 z/4 z/4 z/4 z/4 z/ G/-<G/ z/4 z/4 z/4 z/4 z/4 z/4 z/4 z/4 z/4 z/4 z/4 z/4 z/4 z/4 z/4 z/4 z/4 z/4 z/4 z/4 z/4 z/ | %16
[M:4/4] z2 [GB]2- [GB]/4 z/4 z/ z z2 |[M:7/8] z2 e- e3- [Ge]- | [Ge]2- [Ge]/4 z/4 z/ z z z2 |] %19
V:4
 x6 | x6 | x6 | x6 |[M:2/4] x4 |[M:1/4] x2 |[M:3/4] x6 | x6 | x6 | x6 |[M:4/4] z2 A2 z4 | x8 | x8 | %13
 x8 | z2 A2 z4 |[M:39/32] x39/4 |[M:4/4] x8 |[M:7/8] z F-F/4 z/4 z/ z A2- A/4 z/4 z/ | x7 |] %19
V:5
 x6 | x6 | x6 | x6 |[M:2/4] x4 |[M:1/4] x2 |[M:3/4] x6 | x6 | x6 | x6 |[M:4/4] x8 | z2 z E,- E,4 | %12
 z4 z2 C,2 | F,2 B,,6 | x8 |[M:39/32] x4[K:treble] x23/4 | %16
[M:4/4] z2[K:bass] [E,E]2- [E,E]/4 z/4 z/ z z2 |[M:7/8] B,,2- B,,/4 z/4 z/ z C2- C/4 z/4 z/ | x7 |] %19
V:6
 x6 | x6 | x6 | x6 |[M:2/4] x4 |[M:1/4] x2 |[M:3/4] x6 | x6 | x6 | x6 |[M:4/4] x8 | x8 | x8 | x8 | %14
 x8 |[M:39/32] x39/4 |[M:4/4] x8 |[M:7/8] z2 G2- G/4 z/4 z/ z2 | x7 |] %19
V:7
 x6 | x6 | x6 | x6 |[M:2/4] x4 |[M:1/4] x2 |[M:3/4] x6 | x6 | x6 | x6 |[M:4/4] x8 | x8 | x8 | x8 | %14
 x8 |[M:39/32] x4[K:treble] x23/4 |[M:4/4] x2[K:bass] x6 |[M:7/8] z2 E,- E,3 z | x7 |] %19

